X: 1
T: Earl Bley's Jig
R: jig
Z: 2006 John Chambers <jc:trillian.mit.edu>
S: printed MS of unknown origin
M: 6/8
L: 1/8
K: D
|:"D"A2d "A7"cde | "D"A2d "A7"cde | "D"f2g "(Bm)"afd | "Em"gfg "A7"e3 \
| "D"A2d "A7"cde | "D"A2d "A7"cde | "D"fga "A7"gec | "D"d2d d3 :|
|: "G"b2g dgb | "D"a2f dfa | "A7"gec Ace | "D"dfg "D7"a3 \
|  "G"b2g dgb | "D"a2f dcB | "A7"Ace Ace | "D"d2d d3 :|
